X:1
T:E minor Samuel Babcock, 1803
T:Isaac Watts, 1707 (Hymn 5, Book 1)     86. 86. (C. M.)
T:Wilmington
T:Transcribed from The Middlesex Harmony, 1803.
%%score [ 1 2 3 4 ]
L:1/8
Q:1/4=120
M:4/4
K:G
V:1 treble nm="Treble" snm="Tr."
V:2 treble nm="Counter" snm="C."
V:3 treble-8 nm="Tenor" snm="T."
V:4 bass nm="Bass" snm="B."
V:1
 B4 | B2 d2 d2 B2 | c2 c2 B2 B2 | B2 G2 A2 GA | B8- | B4 B4 | G2 GA B2 Bc | dc BA B3 A | %8
w: 1.~Tis|God that lifts our|com- forts high, Or|sinks them in the *|grave;~|_ He|gives, and * bles- sed *|be * his * name! He|
w: 2.~Na-|ked as from the|earth we came, And|crept to life at *|first,~|_ We|to the * earth re- *|turn * a- * gain, And|
 G2 B2 c2 B2 | B6 B>c | d2 g2 d2 d2 | %11
w: takes but what he|gave. He *|takes but what he|
w: min- gle with our|dust, And *|min- gle with out|
 d6"^He        takes      but     what     he""^And       min  –    gle      with     our" z2 | %12
w: gave,|
w: dust,|
 z8 |"^gave.""^dust." z4 B4 | G2 GA B2 G2 | A2 A2 d3 c | Bc dc B2 B2 | B8 |] %18
w: |He|gives, and * bles- sed|be his name! He|takes * but * what he|gave.|
w: |We|to the * earth re-|turn a- gain, And|min- * gle * with our|dust.|
V:2
 E4 | E2 F2 G2 G2 | E2 AG F2 E2 | D2 E2 F2 GE | ^D8- | %5
w: 3.~The|dear de- lights we|here en- * joy, And|fond- ly call our *|own,~|
 D4"^Are   but        short    fa   –   vors" z4 | z8 |"^bor  – rowed  now," z4 z2 z D | %8
w: _||To|
 G2 G2 E2 F2 | G6 E>F | G2 D2 G2 G2 | F6 F2 | E2 EG FD EG | F4 B4 | G2 G2 G2 G2 | E2 EF G3 F | %16
w: be re- paid a-|non, To *|be re- paid a-|non, To|be re- * paid * a- *|non, Are|but short fa- vors|bor- rowed * now, To|
 G2 GF E2 ^D2 | E8 |] %18
w: be re- * paid a-|non.|
V:3
 B4 | G2 A2 B2 B2 | e2 e2 d2 B2 | G2 c>B A2 G2 | F8- | %5
w: 4.~Peace,|all our an- gry|pas- sions, then; Let|each re- * bel- lious|sigh~|
w: 5.~If|smi- ling mer- cy|crown our lives, Its|prai- ses * shall be|spread;~|
 F4"^Be     si   –   lent      at       his""^And   we'll    a  –    dore    the" z4 | z8 | %7
w: _||
w: _||
"^sove  –  reign  will,""^jus     –  tice    too" z4 z2 z A | B2 e2 e2 ^d2 | e6 B2 | B2 B2 BA GA | %11
w: And|eve- ry mur- mur|die, And|eve- ry mur- * mur *|
w: That|strikes our com- forts|dead, That|strikes our com- * forts *|
 (B2 A4) A2 | G2 G2 A2 GA | B4 ^d4 | e2 ge d2 B2 | c2 Ac B3 A | GA BA G2 F2 | E8 |] %18
w: die, * And|eve- ry mur- mur *|dies, Be|si- lent * at his|sove- reign * will, And|eve- * ry * mur- mur|die.|
w: dead, * That|strikes our com- forts *|dead, And|we'll a- * dore the|jus- tice * too, That|strikes * our * com- forts|dead.|
V:4
 E,4 | E,2 D,2 G,2 G,2 | A,2 A,2 B,2 E,>F, | G,2 E,2 D,2 E,2 | B,,8- | B,,4 B,,4 | %6
 E,2 E,F, G,2 G,2 | B,A, G,F, E,3 D, | G,2 G,2 A,2 B,2 | E,6 E,2 | G,2 G,2 G,2 G,2 | D,6 D,2 | %12
 E,2 E,2 D,2 E,2 | B,,4 B,,4 | E,2 E,2 G,2 G,2 | A,2 A,2 G,3 A, | B,2 B,2 B,,2 B,,2 | E,8 |] %18

